X: 2
T: Paddy's Leather Breeches
R: jig
M: 6/8
L: 1/8
K: Bmin
|:aga f2e|fBB f2e|aga f2e|cAA fec|aga f2e|fBB f2 e|fga efa|cAA fec:|


Tune 2161	Setting 28056

